X: 1
T: Constitution Hornpipe
Z: John Chambers <jc:trillian.mit.edu>
B: Ryan's Mammoth Collection 1883 p.153
R: hornpipe, clog, reel
M: 2/4
L: 1/16
K: F
(3cde \
| "F"f2f2 fcaf | "C7"g2g2 gcbg | "F"agfe "(Dm)"dcba | "G7"gfga "C7"gcde || "F"f2f2 fcaf |
| "C7"g2g2 gcbg | "F"agfe "Bb"db"C7"ge | "F"f2f2 f2 :: c2 | "F"Acfc afcA | "Bb"Bdfd "(Gm)"bfdB |
| "C7"cege bgeg | "F"fagf "C7"edcB || "F"Acfc afcA | "Bb"Bdfd "(Gm)"bfdB | "C7"cege bgeg | "F"f2f2 f2 :|
